icons/01.svg

<svg xmlns="http://www.w3.org/2000/svg" class="icon icon-tabler icon-tabler-gavel" width="44"
   height="44" viewBox="0 0 24 24" stroke-width="2" stroke="#776e65" fill="none"
   stroke-linecap="round" stroke-linejoin="round">
   <path stroke="none" d="M0 0h24v24H0z" fill="none" />
   <path d="M13 10l7.383 7.418c.823 .82 .823 2.148 0 2.967a2.11 2.11 0 0 1 -2.976 0l-7.407 -7.385" />
   <path d="M6 9l4 4" />
   <path d="M13 10l-4 -4" />
   <path d="M3 21h7" />
   <path
      d="M6.793 15.793l-3.586 -3.586a1 1 0 0 1 0 -1.414l2.293 -2.293l.5 .5l3 -3l-.5 -.5l2.293 -2.293a1 1 0 0 1 1.414 0l3.586 3.586a1 1 0 0 1 0 1.414l-2.293 2.293l-.5 -.5l-3 3l.5 .5l-2.293 2.293a1 1 0 0 1 -1.414 0z" />
</svg>

<?xml version="1.0" encoding="UTF-8" standalone="no"?>
<svg
   class="icon icon-tabler icon-tabler-gavel"
   width="44"
   height="44"
   viewBox="0 0 24 24"
   stroke-width="2"
   stroke="#776e65"
   fill="none"
   stroke-linecap="round"
   stroke-linejoin="round"
   version="1.1"
   id="svg14"
   sodipodi:docname="01.svg"
   inkscape:version="1.2.2 (732a01da63, 2022-12-09)"
   xmlns:inkscape="http://www.inkscape.org/namespaces/inkscape"
   xmlns:sodipodi="http://sodipodi.sourceforge.net/DTD/sodipodi-0.dtd"
   xmlns="http://www.w3.org/2000/svg"
   xmlns:svg="http://www.w3.org/2000/svg">
  <defs
     id="defs18" />
  <sodipodi:namedview
     id="namedview16"
     pagecolor="#ffffff"
     bordercolor="#000000"
     borderopacity="0.25"
     inkscape:showpageshadow="2"
     inkscape:pageopacity="0.0"
     inkscape:pagecheckerboard="0"
     inkscape:deskcolor="#d1d1d1"
     showgrid="false"
     inkscape:zoom="6.6612673"
     inkscape:cx="26.646581"
     inkscape:cy="33.927478"
     inkscape:window-width="1920"
     inkscape:window-height="1009"
     inkscape:window-x="-8"
     inkscape:window-y="-8"
     inkscape:window-maximized="1"
     inkscape:current-layer="svg14" />
  <g
     id="g7001"
     transform="matrix(0.56818182,0,0,0.56818182,5.1818182,5.1818182)">
    <path
       stroke="none"
       d="M 0,0 H 24 V 24 H 0 Z"
       fill="none"
       id="path2" />
    <path
       d="m 13,10 7.383,7.418 c 0.823,0.82 0.823,2.148 0,2.967 a 2.11,2.11 0 0 1 -2.976,0 L 10,13"
       id="path4" />
    <path
       d="m 6,9 4,4"
       id="path6" />
    <path
       d="M 13,10 9,6"
       id="path8" />
    <path
       d="m 3,21 h 7"
       id="path10" />
    <path
       d="M 6.793,15.793 3.207,12.207 a 1,1 0 0 1 0,-1.414 L 5.5,8.5 6,9 9,6 8.5,5.5 10.793,3.207 a 1,1 0 0 1 1.414,0 l 3.586,3.586 a 1,1 0 0 1 0,1.414 L 13.5,10.5 13,10 l -3,3 0.5,0.5 -2.293,2.293 a 1,1 0 0 1 -1.414,0 z"
       id="path12" />
  </g>
  <text
     xml:space="preserve"
     style="font-size:4.50242px;font-family:'Bauhaus 93';-inkscape-font-specification:'Bauhaus 93, ';fill:#776e65;fill-opacity:1;stroke:none;stroke-width:13.2446;stroke-linecap:round;stroke-miterlimit:16.7;stroke-dasharray:none;paint-order:markers fill stroke"
     x="-0.26161522"
     y="3.0008805"
     id="text301"><tspan
       sodipodi:role="line"
       id="tspan299"
       style="font-style:normal;font-variant:normal;font-weight:normal;font-stretch:normal;font-family:'Franklin Gothic Heavy';-inkscape-font-specification:'Franklin Gothic Heavy, ';fill:#776e65;fill-opacity:1;stroke:none;stroke-width:13.2446;stroke-dasharray:none"
       x="-0.26161522"
       y="3.0008805">I</tspan></text>
</svg>
